Assets/Images/RealidadeAumentada_IMG/Btn_Picture.svg

<svg width="94" height="94" viewBox="0 0 94 94" fill="none" xmlns="http://www.w3.org/2000/svg">
<path d="M0 47C0 21.0426 21.0426 0 47 0C72.9574 0 94 21.0426 94 47C94 72.9574 72.9574 94 47 94C21.0426 94 0 72.9574 0 47Z" fill="#F4F1EA"/>
<path d="M24.6416 39.408C25.545 38.8451 25.1836 35.6557 25.1836 34.7177C25.1836 31.7159 24.8223 27.776 26.2677 25.1494C26.087 25.5247 26.9903 25.1494 27.3517 25.1494C28.255 25.1494 28.9777 24.9618 29.8811 24.7742C30.9651 24.7742 32.4105 24.7742 33.6752 24.7742C34.2172 24.7742 37.6499 25.337 37.4693 24.2114C37.2886 23.4609 34.2172 22.5229 33.6752 22.5229C31.1458 21.7724 25.7256 21.5848 23.9189 23.6485C21.5702 26.0875 22.1122 32.4663 22.4736 35.4681C22.4736 36.5938 22.8349 40.7213 24.6416 39.408Z" fill="#20342E"/>
<path d="M60.7758 25.337C62.7632 25.337 65.6539 25.337 67.4606 26.0875C69.2673 26.8379 69.0867 30.0274 69.0867 31.9035C69.0867 33.4044 68.364 40.1584 70.1707 40.346C72.3388 40.5336 71.9774 33.2168 71.9774 31.9035C71.9774 29.4645 71.9774 25.7123 69.99 24.0238C68.1833 22.5229 64.9312 22.7105 62.7632 22.8981C61.3178 22.8981 58.0657 23.4609 57.1624 24.7742C56.259 25.8999 59.8725 25.337 60.7758 25.337Z" fill="#20342E"/>
<path d="M69.2673 54.2294C68.364 54.7922 68.7253 57.9816 68.7253 58.9197C68.7253 61.9215 69.0867 65.8613 67.6413 68.4879C67.822 68.1127 66.9186 68.4879 66.5573 68.4879C65.6539 68.4879 64.9312 68.6755 64.2086 68.8631C62.7632 69.0507 61.4985 69.2383 60.0531 69.2383C59.5111 69.2383 56.0784 68.6755 56.259 69.8012C56.4397 70.364 59.5111 71.3021 60.0531 71.4897C62.5825 72.2401 68.0027 72.4278 69.8094 70.1764C72.1581 67.7374 71.6161 61.3586 71.2547 58.3568C71.4354 57.0435 71.0741 52.9161 69.2673 54.2294Z" fill="#20342E"/>
<path d="M37.1079 68.8631C35.8432 68.1127 32.9525 68.8631 31.5071 68.6755C30.0617 68.4879 26.629 68.6755 25.7256 67.5498C24.2803 65.8613 25.003 60.7958 25.003 58.5444C25.003 57.6064 25.3643 55.1674 24.8223 54.2294C23.7383 52.7285 22.8349 54.417 22.6542 55.5426C21.7509 59.4825 21.0282 69.2383 25.9063 70.7392C28.255 71.4897 31.1458 71.4897 33.4945 70.9269C34.3979 70.7392 35.1205 70.364 35.8432 69.9888C35.8432 70.1764 38.3726 68.8631 37.1079 68.8631Z" fill="#20342E"/>
<path d="M61.4985 56.8559C62.5825 54.417 61.8598 50.8523 61.6792 48.2258C61.4985 45.9744 62.7632 41.6593 60.7758 39.9708C58.9691 38.4699 56.259 39.2204 54.2717 39.0327C55.3557 37.7195 54.4523 34.1548 53.007 33.4044C52.1036 33.0292 51.0196 33.4044 50.2969 33.4044C49.0322 33.592 47.5868 33.592 46.1415 33.4044C44.6961 33.4044 41.986 32.8415 40.902 33.7796C39.4566 34.9053 39.276 37.5318 39.818 38.8451C38.1919 38.8451 36.3852 39.0327 34.5785 39.408C32.5911 39.7832 32.0491 40.346 31.6878 42.4098C31.5071 44.6611 31.6878 47.1001 31.5071 49.539C31.5071 51.6028 31.1458 54.0417 31.8685 55.9179C32.7718 57.6064 33.6752 58.3568 35.3012 58.5444C37.8306 58.732 40.7213 58.9197 43.2507 58.9197C47.7675 59.1073 52.6456 59.1073 56.9817 58.9197C58.9691 58.7321 60.5951 58.732 61.4985 56.8559ZM47.5868 35.6557C48.4902 35.6557 51.3809 34.9053 51.9229 35.4681C52.2843 35.8433 52.1036 37.1566 52.1036 37.5318C52.1036 38.6575 52.2843 38.4699 51.3809 38.8451C51.0196 39.0327 49.9356 38.8451 49.5742 38.8451C47.0448 38.8451 44.5154 38.8451 41.986 38.8451C42.3474 37.9071 41.8054 36.5938 41.986 35.4681C41.986 35.4681 42.1667 35.4681 42.3474 35.4681C44.1541 35.6557 45.9608 35.8433 47.5868 35.6557ZM45.9608 56.4807C44.1541 56.4807 42.3474 56.4807 40.5407 56.4807C38.9146 56.4807 36.9272 56.8559 35.4819 56.4807C33.6752 56.1055 33.6752 54.417 33.6752 52.3532C33.6752 51.0399 33.6752 49.539 33.8558 48.2258C33.8558 46.5372 33.4945 44.4735 33.6752 42.9726C34.2172 40.346 41.444 41.4717 43.4314 41.6593C46.3221 41.8469 49.3935 41.6593 52.2843 41.6593C54.633 41.6593 57.3431 41.4717 59.5111 42.0345C59.5111 42.0345 59.5111 41.8469 59.3304 41.8469C59.1498 41.8469 59.6918 42.0345 59.6918 42.0345C60.2338 42.4098 59.6918 48.0381 59.8725 49.1638C60.0531 51.0399 60.2338 53.1037 59.8725 54.9798C59.3304 57.4188 57.3431 56.4807 55.3557 56.2931C52.1036 55.9179 49.0322 56.2931 45.9608 56.4807Z" fill="#20342E"/>
<path d="M48.8515 42.5974C47.4062 42.0345 45.9608 42.5974 44.5154 43.3478C41.6247 44.8487 39.818 48.2258 41.0827 51.4152C44.1541 59.2949 56.4397 53.6665 52.6456 46.162C51.9229 44.8487 50.2969 43.1602 48.8515 42.5974ZM51.0196 49.7267C50.1162 54.6046 41.8054 54.0417 42.8894 48.601C43.2507 46.7249 45.5994 44.2859 47.5868 44.4735C49.3935 44.8487 51.3809 47.8505 51.0196 49.7267Z" fill="#20342E"/>
<path d="M59.1498 44.4735C59.1498 43.9107 58.9691 43.5354 58.6078 43.1602C58.2464 42.5974 57.7044 42.5974 57.1624 42.5974C56.0784 42.5974 55.3557 43.5354 55.5364 44.6611V45.0363C55.5364 45.224 55.5364 45.224 55.717 45.4116C56.0784 46.162 56.8011 46.3496 57.3431 46.162C57.5237 46.162 57.7044 46.162 57.8851 46.162C58.6078 45.7868 58.9691 45.224 59.1498 44.4735Z" fill="#20342E"/>
<path d="M47 91C22.6995 91 3 71.3005 3 47H-3C-3 74.6142 19.3858 97 47 97V91ZM91 47C91 71.3005 71.3005 91 47 91V97C74.6142 97 97 74.6142 97 47H91ZM47 3C71.3005 3 91 22.6995 91 47H97C97 19.3858 74.6142 -3 47 -3V3ZM47 -3C19.3858 -3 -3 19.3858 -3 47H3C3 22.6995 22.6995 3 47 3V-3Z" fill="#2C473E"/>
</svg>

<?xml version="1.0" encoding="utf-8"?>
<!-- Generator: Adobe Illustrator 23.0.1, SVG Export Plug-In . SVG Version: 6.00 Build 0)  -->
<svg version="1.1" id="Layer_1" xmlns="http://www.w3.org/2000/svg" xmlns:xlink="http://www.w3.org/1999/xlink" x="0px" y="0px"
	 viewBox="0 0 94 94" style="enable-background:new 0 0 94 94;" xml:space="preserve">
<style type="text/css">
	.st0{fill:#F4F1EA;}
	.st1{fill:#AFC6BD;}
	.st2{fill:#2C473E;}
</style>
<path class="st0" d="M0,47C0,21,21,0,47,0s47,21,47,47S73,94,47,94S0,73,0,47z"/>
<path class="st1" d="M24.6,39.4c0.9-0.6,0.5-3.8,0.5-4.7c0-3-0.4-6.9,1.1-9.6c-0.2,0.4,0.7,0,1.1,0c0.9,0,1.6-0.2,2.5-0.4
	c1.1,0,2.5,0,3.8,0c0.5,0,4,0.6,3.8-0.6c-0.2-0.8-3.3-1.7-3.8-1.7c-2.5-0.8-7.9-0.9-9.8,1.1c-2.3,2.4-1.8,8.8-1.4,11.8
	C22.5,36.6,22.8,40.7,24.6,39.4z"/>
<path class="st1" d="M60.8,25.3c2,0,4.9,0,6.7,0.8c1.8,0.8,1.6,3.9,1.6,5.8c0,1.5-0.7,8.3,1.1,8.4c2.2,0.2,1.8-7.1,1.8-8.4
	c0-2.4,0-6.2-2-7.9c-1.8-1.5-5.1-1.3-7.2-1.1c-1.4,0-4.7,0.6-5.6,1.9C56.3,25.9,59.9,25.3,60.8,25.3z"/>
<path class="st1" d="M69.3,54.2c-0.9,0.6-0.5,3.8-0.5,4.7c0,3,0.4,6.9-1.1,9.6c0.2-0.4-0.7,0-1.1,0c-0.9,0-1.6,0.2-2.3,0.4
	c-1.4,0.2-2.7,0.4-4.2,0.4c-0.5,0-4-0.6-3.8,0.6c0.2,0.6,3.3,1.5,3.8,1.7c2.5,0.8,7.9,0.9,9.8-1.3c2.3-2.4,1.8-8.8,1.4-11.8
	C71.4,57,71.1,52.9,69.3,54.2z"/>
<path class="st1" d="M37.1,68.9c-1.3-0.8-4.2,0-5.6-0.2c-1.4-0.2-4.9,0-5.8-1.1c-1.4-1.7-0.7-6.8-0.7-9c0-0.9,0.4-3.4-0.2-4.3
	c-1.1-1.5-2,0.2-2.2,1.3c-0.9,3.9-1.6,13.7,3.3,15.2c2.3,0.8,5.2,0.8,7.6,0.2c0.9-0.2,1.6-0.6,2.3-0.9
	C35.8,70.2,38.4,68.9,37.1,68.9z"/>
<path class="st1" d="M61.5,56.9c1.1-2.4,0.4-6,0.2-8.6c-0.2-2.3,1.1-6.6-0.9-8.3c-1.8-1.5-4.5-0.8-6.5-0.9c1.1-1.3,0.2-4.9-1.3-5.6
	c-0.9-0.4-2,0-2.7,0c-1.3,0.2-2.7,0.2-4.2,0c-1.4,0-4.2-0.6-5.2,0.4c-1.4,1.1-1.6,3.8-1.1,5.1c-1.6,0-3.4,0.2-5.2,0.6
	c-2,0.4-2.5,0.9-2.9,3c-0.2,2.3,0,4.7-0.2,7.1c0,2.1-0.4,4.5,0.4,6.4c0.9,1.7,1.8,2.4,3.4,2.6c2.5,0.2,5.4,0.4,7.9,0.4
	c4.5,0.2,9.4,0.2,13.7,0C59,58.7,60.6,58.7,61.5,56.9z M47.6,35.7c0.9,0,3.8-0.8,4.3-0.2c0.4,0.4,0.2,1.7,0.2,2.1
	c0,1.1,0.2,0.9-0.7,1.3c-0.4,0.2-1.4,0-1.8,0c-2.5,0-5.1,0-7.6,0c0.4-0.9-0.2-2.3,0-3.4c0,0,0.2,0,0.4,0
	C44.2,35.7,46,35.8,47.6,35.7z M46,56.5c-1.8,0-3.6,0-5.4,0c-1.6,0-3.6,0.4-5.1,0c-1.8-0.4-1.8-2.1-1.8-4.1c0-1.3,0-2.8,0.2-4.1
	c0-1.7-0.4-3.8-0.2-5.3c0.5-2.6,7.8-1.5,9.8-1.3c2.9,0.2,6,0,8.9,0c2.3,0,5.1-0.2,7.2,0.4c0,0,0-0.2-0.2-0.2c-0.2,0,0.4,0.2,0.4,0.2
	c0.5,0.4,0,6,0.2,7.1c0.2,1.9,0.4,3.9,0,5.8c-0.5,2.4-2.5,1.5-4.5,1.3C52.1,55.9,49,56.3,46,56.5z"/>
<path class="st1" d="M48.9,42.6c-1.4-0.6-2.9,0-4.3,0.8c-2.9,1.5-4.7,4.9-3.4,8.1c3.1,7.9,15.4,2.3,11.6-5.3
	C51.9,44.8,50.3,43.2,48.9,42.6z M51,49.7c-0.9,4.9-9.2,4.3-8.1-1.1c0.4-1.9,2.7-4.3,4.7-4.1C49.4,44.8,51.4,47.9,51,49.7z"/>
<path class="st1" d="M59.1,44.5c0-0.6-0.2-0.9-0.5-1.3c-0.4-0.6-0.9-0.6-1.4-0.6c-1.1,0-1.8,0.9-1.6,2.1V45c0,0.2,0,0.2,0.2,0.4
	c0.4,0.8,1.1,0.9,1.6,0.8c0.2,0,0.4,0,0.5,0C58.6,45.8,59,45.2,59.1,44.5z"/>
<path class="st2" d="M47,91C22.7,91,3,71.3,3,47h-6c0,27.6,22.4,50,50,50V91z M91,47c0,24.3-19.7,44-44,44v6c27.6,0,50-22.4,50-50
	H91z M47,3c24.3,0,44,19.7,44,44h6C97,19.4,74.6-3,47-3V3z M47-3C19.4-3-3,19.4-3,47h6C3,22.7,22.7,3,47,3V-3z"/>
</svg>
